modules/hawcons-filled/icons/icon-125-printer-text.svg

<?xml version="1.0" encoding="UTF-8" standalone="no"?>
<svg width="32px" height="32px" viewBox="0 0 32 32" version="1.1" xmlns="http://www.w3.org/2000/svg" xmlns:xlink="http://www.w3.org/1999/xlink" xmlns:sketch="http://www.bohemiancoding.com/sketch/ns">
    <!-- Generator: Sketch 3.0.3 (7891) - http://www.bohemiancoding.com/sketch -->
    <title>icon 125 printer text</title>
    <desc>Created with Sketch.</desc>
    <defs></defs>
    <g id="Page-1" stroke="none" stroke-width="1" fill="none" fill-rule="evenodd" sketch:type="MSPage">
        <g id="icon-125-printer-text" sketch:type="MSArtboardGroup" fill="#929292">
            <path d="M6,9 L6,2.9973917 C6,1.89585781 6.89427625,1 7.99742191,1 L23.0025781,1 C24.1090746,1 25,1.89426273 25,2.9973917 L25,9 L6,9 L6,9 Z M5,25 L3.99428189,25 C2.3405687,25 1,23.6571128 1,22.0005775 L1,12.9994225 C1,11.3443507 2.34058566,10 3.99428189,10 L27.0057181,10 C28.6594313,10 30,11.3428872 30,12.9994225 L30,22.0005775 C30,23.6556493 28.6594143,25 27.0057181,25 L26,25 L26,20 L5,20 L5,25 L5,25 L5,25 Z M6,21 L6,29.000385 C6,30.1047419 6.89092539,31 7.99742191,31 L23.0025781,31 C24.1057238,31 25,30.1125667 25,29.000385 L25,21 L6,21 L6,21 Z M24,16 C24.5522848,16 25,15.5522848 25,15 C25,14.4477152 24.5522848,14 24,14 C23.4477152,14 23,14.4477152 23,15 C23,15.5522848 23.4477152,16 24,16 L24,16 Z M8,24 L8,25 L23,25 L23,24 L8,24 L8,24 Z M8,27 L8,28 L23,28 L23,27 L8,27 L8,27 Z" id="printer-text" sketch:type="MSShapeGroup"></path>
        </g>
    </g>
</svg>

<svg width="32" height="32" viewBox="0 0 32 32" xmlns="http://www.w3.org/2000/svg"><path d="M6 9V2.997C6 1.896 6.894 1 7.997 1h15.006C24.109 1 25 1.894 25 2.997V9H6zM5 25H3.994A2.997 2.997 0 0 1 1 22v-9c0-1.656 1.34-3 2.994-3h23.012A2.997 2.997 0 0 1 30 13v9c0 1.656-1.34 3-2.994 3H26v-5H5v5zm1-4v8c0 1.105.89 2 1.997 2h15.006A1.994 1.994 0 0 0 25 29v-8H6zm18-5a1 1 0 1 0 0-2 1 1 0 0 0 0 2zM8 24v1h15v-1H8zm0 3v1h15v-1H8z" fill="#929292" fill-rule="evenodd"/></svg>
